X: 429
T: The Boys of Bluehill
B: jims roots
M:4/4
L:1/8
R: hornpipe
Q: 1/4=100
K:D
V:1 
%N: heptatonic
FA|"D"BAFA D2FA | "G"BA (3Bcd "A"e2de | "D"fagf "A"egfe | "D"dfed "G"B2dA |
"D"BAFA DAFA | "G"BA (3Bcd "A"e2de | "D"fagf "A"egfe | "D"d2d2 d2:|
fg | "D"afdf a2gf | "G"efga b2ag | "D"fagf "A"egfe | "D"dfed "G"B2dA |
"D"BAFA D2FA | "G" BA (3Bcd "A"e2de | "D"fagf "A"egfe | "D"d2d2 d2:|
% abcbook-tune_id 6298c2457f2d3851b57a922d


% abcbook-boost 0
% abcbook-tablature 
% abcbook-transpose 
% abcbook-lastupdated 1654178373489
% abcbook-soundfonts 
% abcbook-repeats 1


